svg/aws-guard-duty.svg

<?xml version="1.0" encoding="UTF-8"?>
<svg xmlns="http://www.w3.org/2000/svg" xmlns:xlink="http://www.w3.org/1999/xlink" width="32" height="32" viewBox="0 0 32 32">
<defs>
<linearGradient id="linear-pattern-0" gradientUnits="userSpaceOnUse" x1="0" y1="1" x2="1" y2="0" gradientTransform="matrix(32, 0, 0, 32, 0, 0)">
<stop offset="0" stop-color="rgb(74.117647%, 3.137255%, 8.627451%)" stop-opacity="1"/>
<stop offset="1" stop-color="rgb(100%, 32.156863%, 32.156863%)" stop-opacity="1"/>
</linearGradient>
</defs>
<rect x="-3.2" y="-3.2" width="38.4" height="38.4" fill="url(#linear-pattern-0)"/>
<path fill-rule="evenodd" fill="rgb(100%, 100%, 100%)" fill-opacity="1" d="M 18 17.175781 C 17.984375 18.117188 17.695312 19.214844 16.5 19.453125 L 16.5 12.914062 L 18 13.539062 Z M 14 17.167969 L 14 13.539062 L 15.5 12.914062 L 15.5 19.445312 C 14.121094 19.152344 14 17.664062 14 17.167969 M 15.808594 11.703125 L 13.308594 12.742188 C 13.121094 12.820312 13 13 13 13.203125 L 13 17.167969 C 13 18.707031 13.785156 20.5 16 20.5 C 17.84375 20.5 18.964844 19.265625 19 17.183594 L 19 13.203125 C 19 13 18.878906 12.820312 18.691406 12.742188 L 16.191406 11.703125 C 16.070312 11.652344 15.929688 11.652344 15.808594 11.703125 M 20 17.183594 C 20 17.359375 19.953125 21.5 16 21.5 C 12.0625 21.5 12 17.347656 12 17.167969 L 12 12.203125 L 16 10.542969 L 20 12.203125 Z M 20.691406 11.40625 L 16.191406 9.539062 C 16.070312 9.488281 15.929688 9.488281 15.808594 9.539062 L 11.308594 11.40625 C 11.121094 11.484375 11 11.667969 11 11.871094 L 11 17.167969 C 11 19.015625 12.046875 22.5 16 22.5 C 19.953125 22.5 21 19.023438 21 17.183594 L 21 11.871094 C 21 11.667969 20.878906 11.484375 20.691406 11.40625 M 26 17.558594 L 24.785156 17.492188 C 24.542969 17.484375 24.328125 17.644531 24.269531 17.878906 C 24.058594 18.816406 23.6875 19.707031 23.175781 20.519531 C 23.042969 20.726562 23.082031 21 23.265625 21.160156 L 24.171875 21.96875 L 21.96875 24.171875 L 21.164062 23.269531 C 21 23.09375 20.730469 23.058594 20.523438 23.179688 C 19.710938 23.695312 18.816406 24.066406 17.878906 24.277344 C 17.636719 24.328125 17.472656 24.546875 17.488281 24.792969 L 17.558594 26 L 14.441406 26 L 14.507812 24.789062 C 14.523438 24.546875 14.359375 24.328125 14.121094 24.273438 C 13.183594 24.0625 12.289062 23.691406 11.476562 23.175781 C 11.269531 23.046875 11 23.085938 10.839844 23.265625 L 10.03125 24.171875 L 7.828125 21.96875 L 8.734375 21.164062 C 8.90625 20.996094 8.941406 20.734375 8.824219 20.523438 C 8.304688 19.714844 7.933594 18.820312 7.726562 17.878906 C 7.667969 17.644531 7.453125 17.484375 7.210938 17.492188 L 6 17.558594 L 6 14.441406 L 7.214844 14.507812 C 7.453125 14.511719 7.664062 14.355469 7.730469 14.125 C 7.941406 13.1875 8.3125 12.292969 8.828125 11.484375 C 8.960938 11.277344 8.921875 11.003906 8.738281 10.84375 L 7.828125 10.03125 L 10.03125 7.828125 L 10.84375 8.738281 C 11.003906 8.921875 11.277344 8.957031 11.480469 8.828125 C 12.289062 8.308594 13.183594 7.9375 14.121094 7.734375 C 14.359375 7.679688 14.523438 7.460938 14.511719 7.21875 L 14.441406 6 L 17.558594 6 L 17.492188 7.21875 C 17.480469 7.460938 17.644531 7.675781 17.878906 7.734375 C 18.8125 7.945312 19.707031 8.316406 20.515625 8.828125 C 20.722656 8.960938 20.996094 8.921875 21.15625 8.738281 L 21.96875 7.828125 L 24.171875 10.03125 L 23.261719 10.839844 C 23.089844 11.007812 23.054688 11.269531 23.171875 11.480469 C 23.6875 12.292969 24.058594 13.1875 24.269531 14.125 C 24.332031 14.359375 24.542969 14.519531 24.785156 14.511719 L 26 14.441406 Z M 26.84375 13.550781 C 26.742188 13.460938 26.609375 13.410156 26.472656 13.414062 L 25.140625 13.488281 C 24.929688 12.730469 24.625 12 24.238281 11.3125 L 25.234375 10.425781 C 25.335938 10.335938 25.398438 10.203125 25.402344 10.066406 C 25.40625 9.929688 25.351562 9.796875 25.253906 9.699219 L 22.300781 6.746094 C 22.203125 6.648438 22.070312 6.597656 21.933594 6.601562 C 21.796875 6.605469 21.664062 6.664062 21.574219 6.765625 L 20.683594 7.765625 C 20 7.375 19.269531 7.070312 18.511719 6.863281 L 18.585938 5.527344 C 18.59375 5.390625 18.542969 5.253906 18.449219 5.15625 C 18.355469 5.054688 18.222656 5 18.085938 5 L 13.914062 5 C 13.777344 5 13.644531 5.054688 13.550781 5.15625 C 13.453125 5.253906 13.402344 5.390625 13.414062 5.527344 L 13.488281 6.863281 C 12.726562 7.070312 11.996094 7.371094 11.3125 7.761719 L 10.425781 6.765625 C 10.332031 6.667969 10.203125 6.609375 10.066406 6.605469 C 9.929688 6.601562 9.796875 6.652344 9.699219 6.746094 L 6.746094 9.699219 C 6.648438 9.796875 6.59375 9.929688 6.597656 10.066406 C 6.601562 10.203125 6.664062 10.335938 6.765625 10.425781 L 7.761719 11.3125 C 7.375 12 7.070312 12.730469 6.859375 13.488281 L 5.527344 13.414062 C 5.390625 13.417969 5.261719 13.464844 5.15625 13.550781 C 5.058594 13.648438 5 13.777344 5 13.914062 L 5 18.085938 C 5 18.222656 5.054688 18.355469 5.15625 18.449219 C 5.253906 18.546875 5.390625 18.59375 5.527344 18.585938 L 6.855469 18.511719 C 7.0625 19.273438 7.367188 20.003906 7.757812 20.691406 L 6.765625 21.574219 C 6.664062 21.667969 6.601562 21.796875 6.597656 21.9375 C 6.59375 22.074219 6.648438 22.207031 6.746094 22.304688 L 9.699219 25.253906 C 9.792969 25.355469 9.929688 25.410156 10.066406 25.402344 C 10.203125 25.394531 10.332031 25.335938 10.425781 25.234375 L 11.308594 24.242188 C 11.992188 24.636719 12.726562 24.941406 13.488281 25.148438 L 13.414062 26.472656 C 13.40625 26.609375 13.457031 26.746094 13.550781 26.84375 C 13.644531 26.945312 13.777344 27 13.914062 27 L 18.085938 27 C 18.222656 27 18.355469 26.945312 18.449219 26.84375 C 18.542969 26.746094 18.59375 26.609375 18.585938 26.472656 L 18.511719 25.148438 C 19.273438 24.941406 20.007812 24.636719 20.691406 24.242188 L 21.574219 25.234375 C 21.667969 25.335938 21.796875 25.394531 21.933594 25.402344 C 22.074219 25.410156 22.207031 25.351562 22.300781 25.253906 L 25.253906 22.304688 C 25.351562 22.207031 25.40625 22.074219 25.402344 21.9375 C 25.398438 21.800781 25.335938 21.671875 25.234375 21.578125 L 24.238281 20.691406 C 24.632812 20.007812 24.933594 19.273438 25.140625 18.511719 L 26.472656 18.585938 C 26.609375 18.59375 26.742188 18.542969 26.84375 18.449219 C 26.941406 18.355469 27 18.222656 27 18.085938 L 27 13.914062 C 27 13.777344 26.945312 13.644531 26.84375 13.550781 M 26.84375 13.550781 "/>
</svg>

<svg role="img" viewBox="0 0 32 32" height="32" width="32" xmlns="http://www.w3.org/2000/svg"><defs><linearGradient gradientTransform="scale(32)" gradientUnits="userSpaceOnUse" id="487__486__332__331__59__58__336__335__331__330__67__66__245__244__141__140__219__218__61__60__aws-guard-duty_svg__svg/aws-guard-duty.svg439__svg/aws-guard-duty.svg437__aws-guard-duty-lp-0" x1="0" x2="1" y1="1" y2="0"><stop offset="0" stop-color="rgb(74.117647%, 3.137255%, 8.627451%)"/><stop offset="1" stop-color="rgb(100%, 32.156863%, 32.156863%)"/></linearGradient></defs><path d="M-3.2-3.2h38.4v38.4H-3.2z" fill="url(#487__486__332__331__59__58__336__335__331__330__67__66__245__244__141__140__219__218__61__60__aws-guard-duty_svg__svg/aws-guard-duty.svg439__svg/aws-guard-duty.svg437__aws-guard-duty-lp-0)"/><path d="M18 17.176c-.016.941-.305 2.039-1.5 2.277v-6.539l1.5.625Zm-4-.008v-3.629l1.5-.625v6.531c-1.379-.293-1.5-1.78-1.5-2.277m1.809-5.465-2.5 1.04a.497.497 0 0 0-.309.46v3.965c0 1.539.785 3.332 3 3.332 1.844 0 2.965-1.234 3-3.316v-3.98a.497.497 0 0 0-.309-.462l-2.5-1.039a.5.5 0 0 0-.382 0M20 17.183c0 .176-.047 4.317-4 4.317-3.937 0-4-4.152-4-4.332v-4.965l4-1.66 4 1.66Zm.691-5.777-4.5-1.867a.5.5 0 0 0-.382 0l-4.5 1.867a.503.503 0 0 0-.309.465v5.297c0 1.848 1.047 5.332 5 5.332 3.953 0 5-3.477 5-5.316V11.87a.503.503 0 0 0-.309-.465M26 17.56l-1.215-.067a.513.513 0 0 0-.515.387 8.421 8.421 0 0 1-1.094 2.64.496.496 0 0 0 .09.641l.906.809-2.203 2.203-.805-.902a.516.516 0 0 0-.64-.09 8.36 8.36 0 0 1-2.645 1.097.492.492 0 0 0-.39.516l.07 1.207H14.44l.067-1.21a.498.498 0 0 0-.387-.517 8.36 8.36 0 0 1-2.644-1.097.5.5 0 0 0-.637.09l-.809.906-2.203-2.203.906-.805a.526.526 0 0 0 .09-.64 8.286 8.286 0 0 1-1.097-2.645.513.513 0 0 0-.516-.387L6 17.56v-3.12l1.215.067a.527.527 0 0 0 .515-.383 8.302 8.302 0 0 1 1.098-2.64.496.496 0 0 0-.09-.641l-.91-.813 2.203-2.203.813.91c.16.184.433.219.636.09a8.034 8.034 0 0 1 2.641-1.094.505.505 0 0 0 .39-.515L14.442 6h3.118l-.067 1.219a.506.506 0 0 0 .387.515 8.493 8.493 0 0 1 2.637 1.094c.207.133.48.094.64-.09l.813-.91 2.203 2.203-.91.809a.527.527 0 0 0-.09.64 8.36 8.36 0 0 1 1.098 2.645.513.513 0 0 0 .515.387l1.215-.07Zm.844-4.008a.54.54 0 0 0-.371-.137l-1.332.074a9.623 9.623 0 0 0-.903-2.175l.996-.887a.505.505 0 0 0 .168-.36.501.501 0 0 0-.148-.367L22.3 6.746a.497.497 0 0 0-.367-.144.5.5 0 0 0-.36.164l-.89 1a9.348 9.348 0 0 0-2.172-.903l.074-1.336a.5.5 0 0 0-.5-.527h-4.172a.493.493 0 0 0-.363.156.47.47 0 0 0-.137.371l.074 1.336a9.295 9.295 0 0 0-2.175.899l-.887-.996a.504.504 0 0 0-.36-.16.51.51 0 0 0-.367.14L6.746 9.7a.501.501 0 0 0-.148.367c.004.137.066.27.168.36l.996.886a9.805 9.805 0 0 0-.903 2.176l-1.332-.074a.58.58 0 0 0-.37.137.509.509 0 0 0-.157.363v4.172a.5.5 0 0 0 .527.5l1.328-.074c.207.761.512 1.492.903 2.18l-.992.882a.501.501 0 0 0-.02.73l2.953 2.95c.094.101.23.156.367.148a.528.528 0 0 0 .36-.168l.883-.992c.683.395 1.418.7 2.18.906l-.075 1.325a.5.5 0 0 0 .5.527h4.172a.5.5 0 0 0 .5-.527l-.074-1.325a9.182 9.182 0 0 0 2.18-.906l.882.992c.094.102.223.16.36.168.14.008.273-.05.367-.148l2.953-2.95a.501.501 0 0 0 .148-.366.512.512 0 0 0-.168-.36l-.996-.887a9.17 9.17 0 0 0 .903-2.18l1.332.075a.505.505 0 0 0 .37-.137.509.509 0 0 0 .157-.363v-4.172a.493.493 0 0 0-.156-.363m0 0" fill="rgb(100%, 100%, 100%)" fill-rule="evenodd"/></svg>
